X: 3829
T: Black Frog, The
R: jig
M: 6/8
K: Dmajor
DD/D/D DEF|ED/D/B, DB,/B,/A,|DE/D/D DEF|ABA =F^FA|
1 d/d/dB AFE|F/F/ED B,DA,|DEF AFE|DE/D/D DFE:|
2 d/d/dB AFE|F/F/ED B,DA,|DEF AFE|DE/D/D DBc||
[Dd]fa gec|fdB ecA|GAB AB/B/c|def ecA|
1 aa/a/a agf|gg/g/g gfe|f/g/af edc|dAF DBc:|
2 aa/a/a agf|gg/g/g gfe|fdB ecA|dA/A/F BGE||

